X: 488
T:An Ri/l Cam
C:Traditional
Z:Gordon Turnbull, Edinburgh
B:CRE1 (107)
N:107.  An Rl Cam [The Crooked Reel]:  The song Follow me down to Carlow is
N:of course sung to this air.  O'Neill has two settings, Follow me down and
N:Follow me down to Carlow (O'N i, 547 and 988). Goodman calls it Miss
N:Murphy (G ii, 156 and G iii, 182).  It is also played as a jig [e.g., as a
N:single jig in CR II, 84].  In Scotland it is called Bonnie Annie.  It is
N:printed in the "Glen Collection of Scottish Dance Music" (i, p;23), from a
N:collection by Dow published c.1775. Aird also printed it (iii, 548). [from
N:Sonny Brogan, accordion][Breandan Breathnach, translation by Paul de Grae]
M:C
L:1/8
N:Posted to the woodenflute mailing list January 2002
K:ADor
(3ABA AG EF G2 | AGAB cded | BA (3B^cd eaaf | (3gfe dB BAdB |
(3ABA AG EF G2 | AGAB cded | BA (3B^cd eaaf | (3gfe dB BA A2 |]
egdg egdc | BG ~G2 Bc d2 | egdg eaaf | (3gfe dB BA A2 |
agef gedB | (3cBA (3BAG EFGB | AGAB cdef | (3gfe dB BA A2 |]
<end>
<start>
